X: 03061
T: MOTHER'S HORNPIPE
C: Bob McQuillen May 1977
B: Bob's Note Book 03 #61
R: hornpipe, reel
%D:1977
Z: 2020 John Chambers <jc:trillian.mit.edu>
M: C
L: 1/8
K: D
DE \
| F2DF E2DE | FEFG A2FA | d2A2 d2A2 | GFED E2DE |\
| F2DF E2DE | FEFG AFDA | dBAF GBAG | F2D2 D2  :|
|: FA \
| d2A2 GBAG | F2D2 D2FA | d2A2 GBAG | F2E2 E2de |\
| f2df e2ce | d2B2 A2FA | BcdB cdec | d2D2 D2  :|
%%begintext align
%% Here's a tune for all nice mothers
%% on Mothers' Day, but especially
%% for mine, Mrs. Eleanore L. Campbell of
%% Peterborough, N.H.
%%endtext

%%sep 1 1 500

%%sep 1 1 500

